source/img/icon-black-fb.svg

<svg width="8" height="15" viewBox="0 0 8 15" fill="none" xmlns="http://www.w3.org/2000/svg">
<path d="M4.98457 4.94098V3.17196C4.98457 2.68371 5.38083 2.28745 5.86908 2.28745H6.75359V0.0761719H4.98457C3.51893 0.0761719 2.33103 1.26407 2.33103 2.7297V4.94098H0.562012V7.15226H2.33103V14.2283H4.98457V7.15226H6.75359L7.6381 4.94098H4.98457Z" fill="#2D383F"/>
</svg>

<svg width="8" height="15" fill="none" xmlns="http://www.w3.org/2000/svg"><path d="M4.985 4.941V3.172c0-.488.396-.885.884-.885h.885V.077h-1.77A2.653 2.653 0 002.332 2.73v2.21H.562v2.211h1.769v7.076h2.654V7.152h1.769l.884-2.211H4.985z" fill="#2D383F"/></svg>
